img/image.svg

<?xml version="1.0" encoding="UTF-8"?>
<svg viewBox="0 0 363.868 363.868" xml:space="preserve" xmlns="http://www.w3.org/2000/svg">
	<path class="path-line" d="m92.723 274.94c-3.178 3.178-5.747 9.388-5.747 13.875v58.444h33.929v-92.373c0-4.487-2.569-5.56-5.747-2.382l-22.427 22.43z" fill="#fff"/>
	<path class="path-line" d="m241.75 219.57c-3.17 3.178-5.747 9.389-5.747 13.884v113.82h33.929v-147.78c0-4.487-2.569-5.552-5.747-2.374l-22.43 22.45z" fill="#fff"/>
	<path class="path-line" d="m291.42 169.83c-3.178 3.17-5.755 9.38-5.755 13.867v163.56h31.547v-195.05c0-4.487-2.577-5.56-5.755-2.382l-20.04 20z" fill="#fff"/>
	<path class="path-line" d="m193.08 268.24s-1.512 1.52-3.381 3.39c-1.861 1.87-3.373 7.031-3.373 11.518v64.118h33.929v-98.047c0-4.487-2.577-5.56-5.755-2.382l-21.42 21.4z" fill="#fff"/>
	<path class="path-line" d="m142.4 251c-3.178-3.17-5.755-2.105-5.755 2.382v93.885h33.929v-60.03c0-4.487-2.439-10.559-5.454-13.558l-5.454-5.43-17.27-17.24z" fill="#fff"/>
	<path class="path-line" d="m50.023 317.67l-10.957 10.974c-3.17 3.178-5.739 8.633-5.739 12.193v6.438h37.871v-42.68c0-4.487-2.569-5.552-5.747-2.374l-15.428 15.45z" fill="#fff"/>
	<path class="path-arrow" d="m358.12 150.72c3.17 3.178 5.747 2.105 5.747-2.382v-116.15c0-8.316-7.966-15.599-16.233-15.599h-115.48c-4.487 0-5.56 2.577-2.382 5.755l41.074 41.106-16.753 16.68-77.701 77.774-41.1-41.09c-3.178-3.178-8.316-3.17-11.494 0l-114.29 114.37c-12.698 12.7-12.69 33.29 7e-3 45.99l0.797 0.805c12.697 12.697 33.287 12.697 45.975-8e-3l73.247-73.287 41.098 41.057c3.178 3.17 8.324 3.17 11.502 0l135.48-135.5 40.49 40.48z" fill="#dfd"/>
</svg>

<svg xmlns="http://www.w3.org/2000/svg" xmlns:xlink="http://www.w3.org/1999/xlink" viewBox="0 0 363.868 363.868" xml:space="preserve">
	<path class="path-line" style="fill:#fff" d="M92.723,274.945c-3.178,3.178-5.747,9.388-5.747,13.875v58.444h33.929v-92.373 c0-4.487-2.569-5.56-5.747-2.382L92.723,274.945z"/>
	<path class="path-line" style="fill:#fff" d="M241.752,219.573c-3.17,3.178-5.747,9.389-5.747,13.884v113.816h33.929V199.487 c0-4.487-2.569-5.552-5.747-2.374L241.752,219.573z"/>
	<path class="path-line" style="fill:#fff" d="M291.418,169.834c-3.178,3.17-5.755,9.38-5.755,13.867v163.563h31.547V152.212 c0-4.487-2.577-5.56-5.755-2.382L291.418,169.834z"/>
	<path class="path-line" style="fill:#fff" d="M193.078,268.239c0,0-1.512,1.52-3.381,3.39c-1.861,1.87-3.373,7.031-3.373,11.518v64.118h33.929 v-98.047c0-4.487-2.577-5.56-5.755-2.382L193.078,268.239z"/>
	<path class="path-line" style="fill:#fff" d="M142.405,250.998c-3.178-3.17-5.755-2.105-5.755,2.382v93.885h33.929v-60.03 c0-4.487-2.439-10.559-5.454-13.558l-5.454-5.43L142.405,250.998z"/>
	<path class="path-line" style="fill:#fff" d="M50.023,317.669l-10.957,10.974c-3.17,3.178-5.739,8.633-5.739,12.193v6.438h37.871V304.59 c0-4.487-2.569-5.552-5.747-2.374L50.023,317.669z"/>
	<path class="path-arrow" style="fill:#dfd" d="M358.121,150.724c3.17,3.178,5.747,2.105,5.747-2.382V32.193c0-8.316-7.966-15.599-16.233-15.599 H232.16c-4.487,0-5.56,2.577-2.382,5.755l41.074,41.106l-16.753,16.68l-77.701,77.774L135.3,116.82 c-3.178-3.178-8.316-3.17-11.494,0L9.519,231.189C-3.178,243.894-3.17,264.484,9.527,277.18l0.797,0.805 c12.697,12.697,33.287,12.697,45.975-0.008l73.247-73.287l41.098,41.057c3.178,3.17,8.324,3.17,11.502,0l135.479-135.503 L358.121,150.724z"/>
</svg>
